X: 21201
Q: "Slow with Expression"
M: 6/8
L: 1/16
K: Bb
"_P."F3GF2 {Bc}d3cB2 | {A}G3FG2 B2G2F2 | F3GF2 {Bc}d3cB2 | {d}c3Bcd B4F2 |\
|: "_PP."Bc |\
d3cd2 e3dcB | {A}G3FG2 B2G2F2 | d3cd2 e4dc | ~B3cd=e f4F2 |\
d3cd2 e3dcB | G3FG2 B2G2F2 | F3GF2 d3cB2 | c3Bcd B4 :|


